X:1
T:Title
%%score { ( 1 5 ) | ( 2 3 4 ) }
L:1/8
M:3/4
K:F
V:1 treble nm="Grand Piano"
V:5 treble 
V:2 bass 
V:3 bass 
V:4 bass 
V:1
 z2 z[Q:1/4=100] A GF | [A,C]3 D [A,C]F | [B,E]3 B [CA]G | [B,D]3 E [DF]G |[M:3/8] [CA]3 | AGA | %6
[M:3/4] [DB]3 G FG | [CA]3 A AA | [FG]3 G A=B |[M:7/16] [Ec]/-[Ec]/-[Ec]/-[Ec]-<[Ec] | %10
[M:3/8] FA[Ac] |[M:3/4] [Ac]4 z2 | c4[K:bass][K:treble] z2 |[M:3/8] [Be]3 | [Bd][Bd][B^c] | %15
[M:3/4] [CAc]3 [A,CF] [CFA][CAc] | [Ac]4 z2 |[M:3/8] c3[K:bass] | cdc | %19
[M:3/4] z2 [FA-]2 A2[Q:1/4=99][Q:1/4=97][Q:1/4=96][Q:1/4=94][Q:1/4=93][Q:1/4=91][Q:1/4=90][Q:1/4=88][Q:1/4=87][Q:1/4=85][Q:1/4=84][Q:1/4=82][Q:1/4=81][Q:1/4=79][Q:1/4=78][Q:1/4=76] | %20
[M:3/8] F3 |] %21
V:2
 z2 z C B,A, | z C, z A, z A, | z C, z D z B, | z E, z C z ^C |[M:3/8] z C,F, | FE_E | %6
[M:3/4][K:bass] z D, z D D^C | z C, z[K:treble] C FF | z D, z[K:treble] F FF | %9
[M:7/16][K:bass] G,A,B,3/2 |[M:3/8] [F,A,C][F,CF][F,C] |[M:3/4] .C2 z [F,A,F] [F,A,F][F,CF] | %12
 [A,F]3 [F,A,F] [F,CF][F,C] |[M:3/8] C z z | [C,C][D,C][E,C] |[M:3/4] F,C, F,F, F,F, | %16
 F,3 [F,A,F] [F,A,F][F,CF] |[M:3/8] [A,F]3 | [F,A,F][F,_A,F][F,=A,F] | %19
[M:3/4] [F,CF]B,, C,D, [E,B,][C,B,C] |[M:3/8] [A,C]B,A, |] %21
V:3
 x6 | z2 F,2 C,2 | z2 G,2 C,2 | z2 G,2 z2 |[M:3/8] F,,3 | x3 |[M:3/4][K:bass] z2 F,4 | %7
 z2 F,4[K:treble] | z2 G,4[K:treble] |[M:7/16][K:bass] C,/-C,/-C,/-C,-<C, |[M:3/8] x3 | %11
[M:3/4] F,4 z2 | .F,2 z2 z2 |[M:3/8] C,3 | x3 |[M:3/4] x6 | x6 |[M:3/8] F, z z | x3 |[M:3/4] x6 | %20
[M:3/8] F,3 |] %21
V:4
 x6 | F,,6 | G,,6 | C,4 C,2 |[M:3/8] x3 | x3 |[M:3/4][K:bass] B,,6 | F,,4[K:treble] z2 | %8
 G,,4[K:treble] z2 |[M:7/16][K:bass] x7/2 |[M:3/8] x3 |[M:3/4] x6 | x6 |[M:3/8] x3 | x3 | %15
[M:3/4] x6 | x6 |[M:3/8] x3 | x3 |[M:3/4] x6 |[M:3/8] x3 |] %21
V:5
 x6 | x6 | x6 | x6 |[M:3/8] x3 | x3 |[M:3/4] x6 | x6 | x6 |[M:7/16] z FG3/2 |[M:3/8] x3 | %11
[M:3/4] z D Cd dA | z[K:bass] C, F,[K:treble]c A[Ac] |[M:3/8] z DC | x3 |[M:3/4] x6 | CD Cd dA | %17
[M:3/8] z[K:bass] C,F, | x3 |[M:3/4] A[DFB] C=B, CG |[M:3/8] z DC |] %21

